X: 2
T: King William's March
Z: An Draighean
S: https://thesession.org/tunes/15447#setting28928
R: reel
M: 4/4
L: 1/8
K: Ador
A/G/ | Ee e/f/g/e/ | d/c/B/A/ GA/B/ | cB/A/ e/d/c/B/ | A>G EA/G/ |
Ee e/f/g/e/ | d/c/B/A/ GA/B/ | cB/A/ e/d/c/B/ | A2A :|
d| de/f/ gf/g/ | a/g/f/e/ dd | ea ab | a>g ef |
g/f/g/a/ gf/e/ | d/c/B/A/ GA/B/ | cB/A/ e/d/c/B/ | A2A :|
